X:49
T:From Night 'till Morn
N:page 28 on manuscript
M:C
L:1/8
K:C
V:1
g>f | .e2 .e2 .e3 e | dcde c2 de | (fe)dc cdef | g3 a/>f/ e2 g>f | .e2 .e2 .e3 e | Tdcde c2 de |
V:2
e>d | .c2 .c2 .c3 c | G2 G2 E2 FG | (AG)FE EGcd | e3 f/d/ c2 e>d | .c2 .c2 .c3 c | G2 G2 E2 FG |
V:1
fedc cdef | e2 Td2 c2 :||: c2 | cdef g3 g | g2 Ta>g g2 z g | a3 g c'3 e | (g3 a/f/) e2 g>f | .e2 .e2 .e2 z2 |
V:2
AGFE EGcd | c2 G2 E2 :||: E2 | EGcd e3 e | e2 Tf>e e2 z e | f3 e e3 c | (e3 f/d/) c2 e>d | .c2 .c2 .c2 z2 |
V:1
dcde c2 de | efdc cdef | (g3 a/f/) e2 g>f | .e2 .e2 .e2 z2 | Tdcde c2 de | fedc cdef | e2 Td2 c2 :|
V:2
G2 G2 E2 FG | AGFE EGcd | (e3 f/d/) c2 e>d | .c2 .c2 .c2 z2 | G2 G2 E2 FG | AGFE EGcd | c2 G2 E2 :|
